!!!OTL: 935. Abendreihen.
!!!ARE: Europa, Mitteleuropa, Deutschland
!!!SCT: E0935B
!!!TXL: @@DE
!!!YEM: Copyright 1995, estate of Helmut Schaffrath.
**kern	**text
*ICvox	*
*M4/4	*
*met(c)	*
*k[b-]	*
*F:	*
=1	=1
!LO:TX:a:t=Geiſtliche Umdichtung.	!
{2a	Will
4a	nie-
4a	-mand
=2	=2
2cc	ſin-
2b-	-gen,
=3	=3
2a	ſo
2g	will
=4	=4
2f	ſin-
2b-	-gen
=5	=5
1a}	ich
=6	=6
{2a	Will
4a	nie-
4a	-mand
=7	=7
2cc	ſin-
2b-	-gen,
=8	=8
2a	ſo
2g	will
=9	=9
2f	ſin-
2b-	-gen
=10	=10
2a}	ich
{2b-	Der
=11	=11
4a	Kö-
4g	-nig
4f	al-
4e	-ler
=12	=12
2d	Eh-
2c	-ren
=13	=13
2g	freit
2g	um
=14	=14
2a}	mich,
{2b-	der
=15	=15
4a	Kö-
4g	-nig
4f	al-
4e	-ler
=16	=16
2d	Eh-
2c	-ren
=17	=17
2g	freit
2a	um
=18	=18
1f}	mich.
==	==
!!!AGN: Tanz - Lied, Reigen, geistlich
!!!ONB: ESAC (Essen Associative Code) Database: ERK2
!!!AMT: simple quadruple
!!!AIN: vox
!!!EED: Helmut Schaffrath
!!!EEV: 1.0
!!!GTL: Tanz- und Spiellieder.
!!!URL-scan: https://rosdok.uni-rostock.de/mcrviewer/recordIdentifier/rosdok_ppn745177662/iview2/phys_0719.iview2?x=192.47699748739979&y=2060.275849231519&scale=0.7029437510502773&rotation=0&layout=singlePageLayout
!!!ENC: Anna Maria Matuszewska
!!!EEV: 2024/12/18
*-	*-
